Simply-Orange-Circles/scalable/apps/synapse.svg

<svg xmlns="http://www.w3.org/2000/svg" width="48" height="48" viewBox="0 0 12.7 12.7"><path d="M6.34.07a6.29 6.29 0 0 0-6.29 6.3 6.29 6.29 0 0 0 6.3 6.28 6.29 6.29 0 0 0 6.28-6.29A6.29 6.29 0 0 0 6.34.07zm-.42.94V2.1a4.27 4.27 0 0 0-3.75 3.4h.87a3.42 3.42 0 0 1 3.31-2.57 3.42 3.42 0 0 1 3.3 2.57h.89a4.27 4.27 0 0 0-3.76-3.4V1.03a5.4 5.4 0 0 1 4.95 5.38 5.4 5.4 0 0 1-4.95 5.39v-1.2a4.27 4.27 0 0 0 3.75-3.4h-.87a3.42 3.42 0 0 1-3.31 2.57 3.42 3.42 0 0 1-3.3-2.57h-.89a4.27 4.27 0 0 0 3.76 3.4v1.2a5.4 5.4 0 0 1-5-5.38 5.4 5.4 0 0 1 5-5.4zm.43 2.78a2.56 2.56 0 0 0-2.56 2.56 2.56 2.56 0 0 0 .03.43H8a1.71 1.71 0 0 1-1.65 1.28 1.71 1.71 0 0 1-1.13-.43H4.13a2.56 2.56 0 0 0 2.22 1.28 2.56 2.56 0 0 0 2.56-2.56 2.56 2.56 0 0 0-.03-.43H4.7a1.71 1.71 0 0 1 1.65-1.28 1.71 1.71 0 0 1 1.13.43h1.09a2.56 2.56 0 0 0-2.22-1.28z" fill="#ff7f2a"/></svg>

<?xml version="1.0" encoding="UTF-8" standalone="no"?>
<svg
   xmlns:dc="http://purl.org/dc/elements/1.1/"
   xmlns:cc="http://creativecommons.org/ns#"
   xmlns:rdf="http://www.w3.org/1999/02/22-rdf-syntax-ns#"
   xmlns:svg="http://www.w3.org/2000/svg"
   xmlns="http://www.w3.org/2000/svg"
   xmlns:sodipodi="http://sodipodi.sourceforge.net/DTD/sodipodi-0.dtd"
   xmlns:inkscape="http://www.inkscape.org/namespaces/inkscape"
   width="48"
   height="48"
   viewBox="0 0 12.7 12.7"
   version="1.1"
   id="svg4"
   sodipodi:docname="synapse.svg"
   inkscape:version="0.92.4 (5da689c313, 2019-01-14)">
  <metadata
     id="metadata10">
    <rdf:RDF>
      <cc:Work
         rdf:about="">
        <dc:format>image/svg+xml</dc:format>
        <dc:type
           rdf:resource="http://purl.org/dc/dcmitype/StillImage" />
        <dc:title></dc:title>
      </cc:Work>
    </rdf:RDF>
  </metadata>
  <defs
     id="defs8" />
  <sodipodi:namedview
     pagecolor="#ffffff"
     bordercolor="#666666"
     borderopacity="1"
     objecttolerance="10"
     gridtolerance="10"
     guidetolerance="10"
     inkscape:pageopacity="0"
     inkscape:pageshadow="2"
     inkscape:window-width="1087"
     inkscape:window-height="480"
     id="namedview6"
     showgrid="false"
     inkscape:zoom="4.9166667"
     inkscape:cx="2.1355932"
     inkscape:cy="24"
     inkscape:window-x="0"
     inkscape:window-y="25"
     inkscape:window-maximized="0"
     inkscape:current-layer="svg4" />
  <path
     d="M 6.34,0.07 A 6.29,6.29 0 0 0 0.05,6.37 6.29,6.29 0 0 0 6.35,12.65 6.29,6.29 0 0 0 12.63,6.36 6.29,6.29 0 0 0 6.34,0.07 Z M 5.92,1.01 V 2.1 A 4.27,4.27 0 0 0 2.17,5.5 H 3.04 A 3.42,3.42 0 0 1 6.35,2.93 3.42,3.42 0 0 1 9.65,5.5 h 0.89 A 4.27,4.27 0 0 0 6.78,2.1 V 1.03 A 5.4,5.4 0 0 1 11.73,6.41 5.4,5.4 0 0 1 6.78,11.8 V 10.6 A 4.27,4.27 0 0 0 10.53,7.2 H 9.66 A 3.42,3.42 0 0 1 6.35,9.77 3.42,3.42 0 0 1 3.05,7.2 H 2.16 a 4.27,4.27 0 0 0 3.76,3.4 v 1.2 a 5.4,5.4 0 0 1 -5,-5.38 5.4,5.4 0 0 1 5,-5.4 z M 6.35,3.79 A 2.56,2.56 0 0 0 3.79,6.35 2.56,2.56 0 0 0 3.82,6.78 H 8 A 1.71,1.71 0 0 1 6.35,8.06 1.71,1.71 0 0 1 5.22,7.63 H 4.13 A 2.56,2.56 0 0 0 6.35,8.91 2.56,2.56 0 0 0 8.91,6.35 2.56,2.56 0 0 0 8.88,5.92 H 4.7 A 1.71,1.71 0 0 1 6.35,4.64 1.71,1.71 0 0 1 7.48,5.07 H 8.57 A 2.56,2.56 0 0 0 6.35,3.79 Z"
     id="path2"
     inkscape:connector-curvature="0"
     style="fill:#ff7f2a" />
</svg>
